<?xml version="1.0" encoding="UTF-8"?>
<map version="1.10" tiledversion="1.11.2" orientation="orthogonal" renderorder="right-down" width="50" height="24" tilewidth="8" tileheight="8" infinite="0" nextlayerid="9" nextobjectid="23">
 <editorsettings>
  <export target="../maps/map2.json" format="json"/>
 </editorsettings>
 <tileset firstgid="1" name="tilemap_packed" tilewidth="8" tileheight="8" tilecount="150" columns="15">
  <image source="../tilemap_packed.png" width="120" height="80"/>
 </tileset>
 <layer id="7" name="ground" width="50" height="24">
  <data encoding="csv">
3,3,3,3,3,3,0,0,3,3,3,3,3,0,3,3,3,3,3,0,0,3,3,3,3,3,3,3,3,0,0,0,0,0,3,3,3,3,3,3,3,0,0,0,0,0,0,0,0,0,
3,3,3,3,3,3,0,0,3,3,3,3,3,0,3,3,3,3,3,0,0,3,3,3,3,3,3,3,3,0,0,0,0,0,3,3,3,3,3,3,3,0,0,0,0,0,0,0,0,0,
3,3,3,3,3,3,0,0,3,3,3,3,3,0,3,3,3,3,3,0,0,3,3,3,3,3,3,3,3,0,0,0,0,0,3,3,3,3,3,3,3,0,0,0,0,0,0,0,0,0,
3,3,3,3,3,3,0,0,3,3,3,3,3,0,3,3,3,3,3,0,0,3,3,3,3,3,3,3,3,0,0,0,0,0,3,3,3,3,0,0,0,0,0,0,0,0,0,0,0,0,
3,3,3,3,3,3,0,0,0,0,3,3,3,0,3,3,3,3,3,0,0,3,3,3,3,3,3,3,3,0,0,0,0,0,3,3,3,3,0,0,0,0,0,0,0,0,0,0,0,0,
0,0,0,3,3,3,0,0,0,0,3,3,3,0,3,3,0,0,0,0,0,3,3,3,3,3,3,3,3,0,0,0,0,0,3,3,3,3,0,0,0,0,0,0,0,0,0,0,0,0,
0,0,0,3,3,3,0,0,0,0,0,0,0,0,3,3,0,0,0,0,0,3,3,3,3,3,3,3,3,0,0,0,0,0,0,0,0,0,0,0,0,0,0,0,0,0,0,0,0,0,
0,0,0,3,3,3,0,0,0,0,0,0,0,0,3,3,0,0,0,0,0,0,0,0,0,3,3,3,3,0,0,0,0,0,0,0,0,0,0,0,0,0,0,0,0,0,0,0,0,0,
0,0,0,0,0,0,0,0,0,0,0,0,0,0,3,3,0,0,0,0,0,0,0,0,0,0,0,0,0,0,0,0,0,0,0,0,0,0,0,0,0,20,0,0,0,0,0,0,0,0,
0,0,0,0,0,0,0,0,0,0,0,0,0,0,0,0,0,0,0,0,0,0,0,0,0,0,0,0,0,0,0,0,0,0,0,0,0,0,0,0,0,0,0,0,0,0,0,0,0,0,
0,0,0,0,0,0,0,0,0,0,0,0,0,0,0,0,0,0,0,0,0,0,0,0,0,0,0,0,0,0,20,0,0,0,0,0,20,0,0,0,0,0,0,0,0,0,0,0,0,0,
0,0,0,0,0,0,0,0,0,0,20,0,0,0,0,20,0,0,0,0,20,0,0,0,0,0,0,0,0,0,0,0,0,0,0,0,0,0,0,0,0,0,0,0,0,0,0,0,0,0,
0,0,0,0,0,0,20,0,0,0,0,0,0,0,0,0,0,0,0,3,3,0,0,0,0,0,0,0,0,0,0,0,0,0,0,0,0,0,0,0,2,0,0,0,0,0,0,0,0,0,
0,0,0,0,0,0,0,0,0,0,0,0,0,0,0,0,0,0,0,3,3,0,0,0,0,0,0,0,0,0,0,0,0,0,0,0,0,27,0,0,17,0,0,0,0,0,0,0,0,0,
0,0,0,0,0,0,0,0,0,0,0,0,0,0,0,0,0,0,0,3,3,0,0,0,0,0,0,0,0,0,0,0,0,0,0,0,0,0,0,0,32,0,0,0,27,0,0,0,0,0,
0,0,0,20,0,0,3,3,3,0,0,0,0,0,0,0,0,0,0,3,3,0,0,0,0,0,0,0,0,0,0,0,0,0,3,3,0,0,0,0,47,0,0,0,0,0,0,0,0,0,
0,0,0,0,0,0,3,3,3,0,0,0,27,0,0,0,27,0,0,3,3,0,0,0,0,0,0,0,27,0,0,0,0,0,3,3,0,0,0,0,62,0,0,0,0,0,0,0,0,0,
0,0,9,0,0,0,3,3,3,0,0,0,0,2,0,0,0,0,0,3,3,0,0,0,0,0,0,0,0,0,0,0,0,0,3,3,0,0,0,3,3,3,0,0,0,0,0,0,0,0,
0,0,24,0,0,0,3,3,3,0,0,0,0,17,0,3,3,0,0,3,3,0,0,0,0,0,0,9,0,0,3,3,0,0,3,3,0,0,0,3,3,3,0,0,0,0,0,0,0,0,
3,3,39,0,0,0,3,3,3,0,0,0,0,32,0,3,3,0,0,3,3,0,0,0,0,0,0,24,0,0,3,3,0,0,3,3,0,0,0,3,3,3,0,0,0,0,27,0,0,0,
3,3,54,0,0,0,3,3,3,3,3,0,0,47,0,3,3,0,0,3,3,0,0,3,3,3,0,39,0,0,3,3,0,0,3,3,0,0,0,3,3,3,0,0,0,0,0,0,0,0,
3,3,69,0,0,0,3,3,3,3,3,0,0,62,0,3,3,0,0,3,3,0,0,3,3,3,0,54,3,3,3,3,0,0,3,3,0,0,0,3,3,3,0,0,0,0,0,0,0,3,
3,3,3,3,3,3,3,3,3,3,3,3,3,3,3,3,3,0,0,3,3,0,0,3,3,3,0,69,3,3,3,3,0,0,3,3,0,0,0,3,3,3,3,3,3,3,3,3,3,3,
3,3,3,3,3,3,3,3,3,3,3,3,3,3,3,3,3,3,3,3,3,3,3,3,3,3,3,3,3,3,3,3,3,3,3,3,3,3,3,3,3,3,3,3,3,3,3,3,3,3
</data>
 </layer>
 <objectgroup id="8" name="enemies">
  <object id="14" name="ground-enemy" gid="115" x="32" y="176" width="8" height="8"/>
  <object id="15" name="ground-enemy" gid="115" x="240" y="144" width="8" height="8"/>
  <object id="16" name="ground-enemy" gid="115" x="168" y="184" width="8" height="8"/>
  <object id="17" name="ground-enemy" gid="115" x="144" y="184" width="8" height="8"/>
  <object id="18" name="ground-enemy" gid="115" x="112" y="176" width="8" height="8"/>
  <object id="19" name="ground-enemy" gid="115" x="72" y="160" width="8" height="8"/>
  <object id="20" name="ground-enemy" gid="115" x="312" y="136" width="8" height="8"/>
  <object id="21" name="ground-enemy" gid="115" x="336" y="176" width="8" height="8"/>
  <object id="22" name="ground-enemy" gid="115" x="296" y="184" width="8" height="8"/>
 </objectgroup>
</map>
