<?xml version="1.0" encoding="UTF-8"?>
<map version="1.10" tiledversion="1.11.2" orientation="orthogonal" renderorder="right-down" width="70" height="24" tilewidth="8" tileheight="8" infinite="0" nextlayerid="8" nextobjectid="252">
 <editorsettings>
  <export target="../maps/map6.json" format="json"/>
 </editorsettings>
 <tileset firstgid="1" name="tilemap_packed" tilewidth="8" tileheight="8" tilecount="150" columns="15">
  <image source="../tilemap_packed.png" width="120" height="80"/>
 </tileset>
 <layer id="1" name="ground" width="70" height="24">
  <data encoding="csv">
0,0,0,0,0,0,0,0,0,0,0,0,0,0,0,0,0,0,0,0,0,0,0,0,0,0,0,0,0,0,0,0,0,0,0,0,0,0,0,0,0,0,0,0,0,0,0,0,0,0,0,0,0,0,0,0,0,0,0,0,0,0,0,0,0,0,0,0,0,0,
0,0,0,0,0,0,0,0,0,0,0,0,0,0,0,0,0,0,0,0,0,0,0,0,0,0,0,0,0,0,0,0,0,0,0,0,0,0,0,0,0,0,0,0,0,0,0,0,0,0,0,0,0,0,0,0,0,0,0,0,0,0,0,0,0,0,0,0,0,0,
0,0,0,0,0,0,0,0,0,0,0,0,0,0,0,0,0,0,0,0,0,0,0,0,0,0,0,0,0,0,0,0,0,0,0,0,0,0,0,0,0,0,0,0,0,0,0,0,0,0,0,0,0,0,0,0,0,0,0,0,0,0,0,0,0,0,0,0,0,0,
0,0,0,0,0,0,0,0,0,0,0,0,0,0,0,0,0,0,0,0,0,0,0,0,0,0,0,0,0,0,0,0,0,0,0,0,0,0,0,0,0,0,0,0,0,0,0,0,0,0,0,0,0,0,0,0,0,0,0,0,0,0,0,0,0,0,0,0,0,0,
0,0,0,0,0,0,0,0,0,0,0,0,0,0,0,0,0,0,0,0,0,0,0,0,0,0,0,0,0,0,0,0,0,0,0,0,0,0,0,0,0,0,0,0,0,0,0,0,0,0,0,0,0,0,0,0,0,0,0,0,0,0,0,0,0,0,0,0,0,0,
0,0,0,0,0,0,0,0,0,0,0,0,0,0,0,0,0,0,0,0,0,0,0,0,0,0,0,0,0,0,0,0,0,0,0,0,0,0,0,0,0,0,0,0,0,0,0,0,0,0,0,0,0,0,0,0,0,0,0,0,0,0,0,0,0,0,0,0,0,0,
0,0,0,0,0,0,0,0,0,0,0,0,0,0,0,0,0,0,0,0,0,0,0,0,0,0,0,0,0,0,0,0,0,0,0,0,0,0,0,0,0,0,0,0,0,0,0,0,0,0,0,0,0,0,0,0,0,0,0,0,0,0,0,0,0,0,0,0,0,0,
0,0,0,0,0,0,0,0,0,0,0,0,0,0,0,0,0,88,0,0,0,0,0,0,0,0,0,0,0,0,0,0,0,0,0,0,0,0,0,0,0,0,0,0,0,71,72,0,0,0,0,71,72,0,0,0,0,71,72,0,0,0,0,0,0,0,0,0,0,0,
0,0,0,0,0,0,0,0,0,0,0,0,71,42,42,42,42,42,42,42,72,0,0,0,0,0,0,0,0,0,71,42,42,42,42,42,42,42,42,42,42,42,42,42,42,43,41,42,42,42,42,43,26,0,0,0,0,28,41,42,72,0,0,0,0,0,0,0,0,0,
0,0,0,0,0,0,0,0,0,0,0,0,28,3,3,3,3,3,3,3,26,0,0,0,0,0,0,0,0,0,28,3,3,10,3,3,3,11,12,12,12,13,3,3,3,3,3,3,3,3,3,3,26,0,0,0,0,28,3,3,41,42,42,72,0,0,0,0,0,0,
0,0,0,0,0,0,0,0,0,0,0,0,28,3,3,3,3,3,10,3,26,0,0,0,0,0,0,0,0,0,86,12,12,12,12,12,12,87,0,0,0,86,12,12,13,3,3,3,3,3,3,3,26,0,0,0,0,28,3,3,3,3,3,26,0,0,0,0,0,0,
0,0,0,0,0,0,0,0,0,0,0,0,28,3,3,3,3,3,3,3,26,0,0,0,0,0,0,0,0,0,0,0,0,0,0,0,0,0,0,0,0,0,0,0,86,12,12,12,12,12,12,12,87,0,0,0,0,86,12,12,12,12,13,26,0,0,0,0,0,0,
0,0,0,0,0,0,0,0,0,0,0,0,28,3,3,3,3,3,3,3,26,0,0,0,0,0,0,0,0,0,0,0,0,0,0,0,0,0,0,0,0,0,0,0,0,0,0,0,0,0,0,0,0,0,0,0,0,0,0,0,0,0,28,26,0,0,0,0,0,0,
0,0,0,0,0,0,0,0,73,0,0,0,86,12,12,12,12,12,12,12,87,0,0,0,0,0,0,0,0,0,0,0,0,0,0,0,0,0,0,0,0,0,0,0,0,0,0,0,0,0,0,0,0,0,0,0,0,0,0,0,0,0,28,26,0,0,0,0,0,0,
0,0,0,0,0,0,71,42,42,72,0,0,0,0,0,0,0,0,0,0,0,0,0,0,0,0,0,0,0,0,0,0,0,0,0,0,0,0,0,88,0,71,42,42,42,42,42,42,42,42,42,42,72,0,0,0,0,0,0,0,0,0,28,26,0,0,0,0,0,0,
0,0,102,103,0,0,28,3,3,26,0,0,0,0,0,0,0,0,0,0,0,0,0,0,71,42,72,0,0,0,71,42,42,42,42,42,42,42,42,42,42,43,3,3,3,3,3,3,33,3,3,3,26,0,0,0,0,0,0,0,0,0,28,26,0,0,0,0,0,0,
0,0,117,118,0,0,28,3,3,41,42,72,0,0,0,0,0,0,0,0,0,0,0,0,28,3,26,0,0,0,28,3,3,3,3,18,3,3,3,3,3,3,3,3,3,3,3,3,3,3,3,3,26,0,0,0,0,71,42,42,42,42,43,26,0,0,0,71,42,42,
42,42,42,42,42,42,43,3,3,3,3,26,0,0,0,0,0,0,0,0,73,0,0,0,28,3,41,42,42,42,43,3,3,3,3,3,11,12,12,12,12,12,12,12,12,12,12,12,13,3,11,12,87,0,0,0,0,86,12,12,12,12,12,87,0,0,0,28,3,3,
3,3,3,3,3,3,3,3,40,18,3,26,0,0,0,0,0,0,0,0,71,42,42,42,43,3,3,3,3,3,3,3,3,3,3,3,26,0,0,0,0,0,0,0,0,0,0,0,86,12,87,0,0,0,0,0,0,0,0,0,0,0,0,0,0,0,0,86,13,3,
3,3,3,3,3,3,3,18,3,3,3,26,0,0,0,88,0,0,0,0,28,3,3,3,3,3,40,3,3,3,3,3,3,18,3,3,26,0,0,0,0,0,0,0,0,0,0,0,0,0,0,0,0,0,0,0,0,0,0,0,0,0,0,0,0,0,0,0,28,3,
3,3,3,3,3,3,3,3,3,3,3,41,42,42,42,42,42,42,42,42,43,3,3,3,3,3,3,3,3,3,3,3,33,3,3,3,26,0,0,0,0,0,0,0,0,0,0,0,0,0,0,0,0,0,0,0,0,0,0,0,0,0,88,0,0,0,0,0,28,3,
3,18,3,3,3,3,3,3,3,3,3,3,3,3,3,3,3,3,3,3,3,3,3,3,3,3,3,3,3,3,3,3,3,3,3,11,87,0,0,0,0,0,0,0,0,0,0,0,0,73,0,0,0,0,0,71,42,42,42,42,42,42,42,42,42,42,42,42,43,3,
3,3,3,3,3,3,3,3,3,3,3,3,3,3,3,3,3,3,3,3,3,3,18,3,3,3,3,3,3,3,3,3,3,3,3,26,0,0,0,61,0,0,0,61,0,0,0,71,42,42,72,0,0,0,0,28,3,3,3,3,3,3,3,3,3,3,3,3,3,18,
3,3,3,3,3,3,3,3,3,3,3,3,3,3,3,3,3,3,3,3,3,3,3,3,3,3,3,3,3,3,3,3,3,3,3,26,0,0,0,0,0,0,0,0,0,0,0,28,3,3,26,0,0,0,0,28,3,3,3,10,3,3,3,3,3,3,3,3,3,3
</data>
 </layer>
 <objectgroup id="7" name="world">
  <object id="23" name="player" gid="106" x="20.3746" y="128.336" width="8" height="8"/>
  <object id="24" name="finish" gid="74" x="544" y="128" width="8" height="8"/>
  <object id="185" name="key" gid="67" x="344" y="160" width="8" height="8">
   <properties>
    <property name="gateIndex" value="1"/>
   </properties>
  </object>
  <object id="186" name="gate" gid="84" x="480" y="168.048" width="8" height="24"/>
 </objectgroup>
 <objectgroup id="4" name="coins">
  <object id="200" gid="89" x="120" y="128" width="8" height="8"/>
  <object id="201" gid="89" x="128" y="128" width="8" height="8"/>
  <object id="202" gid="89" x="136" y="128" width="8" height="8"/>
  <object id="203" gid="89" x="112" y="128" width="8" height="8"/>
  <object id="205" gid="89" x="172" y="96" width="8" height="8"/>
  <object id="206" gid="89" x="172" y="104" width="8" height="8"/>
  <object id="207" gid="89" x="172" y="112" width="8" height="8"/>
  <object id="228" gid="89" x="256" y="112" width="8" height="8"/>
  <object id="229" gid="89" x="264" y="112" width="8" height="8"/>
  <object id="230" gid="89" x="288" y="112" width="8" height="8"/>
  <object id="231" gid="89" x="296" y="112" width="8" height="8"/>
  <object id="233" gid="89" x="312" y="96" width="8" height="8"/>
  <object id="235" gid="89" x="464" y="112" width="8" height="8"/>
  <object id="236" gid="89" x="472" y="112" width="8" height="8"/>
  <object id="237" gid="89" x="536" y="160" width="8" height="8"/>
  <object id="246" gid="89" x="304" y="160" width="8" height="8"/>
  <object id="247" gid="89" x="312" y="160" width="8" height="8"/>
  <object id="248" gid="89" x="320" y="160" width="8" height="8"/>
  <object id="249" gid="89" x="432" y="128" width="8" height="8"/>
  <object id="250" gid="89" x="432" y="136" width="8" height="8"/>
  <object id="251" gid="89" x="432" y="144" width="8" height="8"/>
 </objectgroup>
 <objectgroup id="5" name="enemies">
  <object id="129" name="flying-enemy" gid="114" x="352" y="104" width="8" height="8">
   <properties>
    <property name="path" value="[{&quot;x&quot;:3, &quot;y&quot;:0},{&quot;x&quot;:3, &quot;y&quot;:1},{&quot;x&quot;:0, &quot;y&quot;:1},{&quot;x&quot;:0, &quot;y&quot;:0}]"/>
   </properties>
  </object>
  <object id="134" name="ground-enemy" gid="115" x="96" y="160" width="8" height="8"/>
  <object id="154" name="ground-enemy" gid="115" x="124" y="160" width="8" height="8"/>
  <object id="159" name="ground-enemy" gid="115" x="240" y="120" width="8" height="8"/>
  <object id="160" name="ground-enemy" gid="115" x="320" y="120" width="8" height="8"/>
  <object id="169" name="flying-enemy" gid="114" x="392" y="104" width="8" height="8">
   <properties>
    <property name="path" value="[{&quot;x&quot;:3, &quot;y&quot;:0},{&quot;x&quot;:3, &quot;y&quot;:1},{&quot;x&quot;:0, &quot;y&quot;:1},{&quot;x&quot;:0, &quot;y&quot;:0}]"/>
   </properties>
  </object>
  <object id="170" name="flying-enemy" gid="114" x="160" y="120" width="8" height="8">
   <properties>
    <property name="path" value="[{&quot;x&quot;:0, &quot;y&quot;:3}, {&quot;x&quot;:0, &quot;y&quot;:0}]"/>
   </properties>
  </object>
  <object id="171" name="flying-enemy" gid="114" x="408" y="152" width="8" height="8">
   <properties>
    <property name="path" value="[{&quot;x&quot;:0, &quot;y&quot;:4}, {&quot;x&quot;:0, &quot;y&quot;:0}]"/>
   </properties>
  </object>
  <object id="173" name="ground-enemy" gid="115" x="472" y="128" width="8" height="8"/>
  <object id="179" name="ground-enemy" gid="115" x="56" y="112" width="8" height="8"/>
  <object id="180" name="ground-enemy" gid="115" x="152" y="160" width="8" height="8"/>
  <object id="181" name="flying-enemy" gid="114" x="184" y="104" width="8" height="8">
   <properties>
    <property name="path" value="[{&quot;x&quot;:0, &quot;y&quot;:3}, {&quot;x&quot;:0, &quot;y&quot;:0}]"/>
   </properties>
  </object>
  <object id="189" name="ground-enemy" gid="115" x="464" y="168" width="8" height="8"/>
  <object id="191" name="flying-enemy" gid="114" x="336" y="160" width="8" height="8">
   <properties>
    <property name="path" value="[{&quot;x&quot;:2, &quot;y&quot;:0}, {&quot;x&quot;:2, &quot;y&quot;:2}, {&quot;x&quot;:0, &quot;y&quot;:2}, {&quot;x&quot;:0, &quot;y&quot;:0}]"/>
   </properties>
  </object>
  <object id="198" name="flying-enemy" gid="114" x="440" y="104" width="8" height="8">
   <properties>
    <property name="path" value="[{&quot;x&quot;:0, &quot;y&quot;:5}, {&quot;x&quot;:0, &quot;y&quot;:0}]"/>
   </properties>
  </object>
 </objectgroup>
 <objectgroup id="6" name="jumpers">
  <object id="130" gid="16" x="440" y="168" width="8" height="8"/>
  <object id="177" gid="16" x="520" y="168" width="8" height="8"/>
 </objectgroup>
 <objectgroup id="2" name="spikes">
  <object id="42" gid="1073741900" x="96" y="120" width="8" height="8"/>
  <object id="153" gid="1073741900" x="104" y="120" width="8" height="8"/>
  <object id="155" gid="1073741900" x="240" y="96" width="8" height="8"/>
  <object id="156" gid="76" x="216" y="136" width="8" height="8"/>
  <object id="157" gid="76" x="224" y="136" width="8" height="8"/>
  <object id="158" gid="76" x="232" y="136" width="8" height="8"/>
  <object id="161" gid="1073741900" x="248" y="96" width="8" height="8"/>
  <object id="162" gid="1073741900" x="328" y="96" width="8" height="8"/>
  <object id="163" gid="1073741900" x="336" y="96" width="8" height="8"/>
  <object id="164" gid="1073741900" x="344" y="96" width="8" height="8"/>
  <object id="172" gid="76" x="176" y="144" width="8" height="8"/>
  <object id="174" gid="1073741900" x="464" y="104" width="8" height="8"/>
  <object id="175" gid="1073741900" x="464" y="152" width="8" height="8"/>
  <object id="178" gid="1073741900" x="496" y="152" width="8" height="8"/>
  <object id="182" gid="1073741900" x="280" y="96" width="8" height="8"/>
  <object id="183" gid="1073741900" x="288" y="96" width="8" height="8"/>
  <object id="184" gid="1073741900" x="144" y="120" width="8" height="8"/>
  <object id="190" gid="1073741900" x="296" y="96" width="8" height="8"/>
  <object id="192" gid="1073741900" x="384" y="160" width="8" height="8"/>
  <object id="193" gid="76" x="208" y="120" width="8" height="8"/>
  <object id="194" gid="1073741900" x="368" y="152" width="8" height="8"/>
  <object id="199" gid="1073741900" x="472" y="104" width="8" height="8"/>
 </objectgroup>
</map>
