<?xml version="1.0" encoding="UTF-8"?>
<map version="1.10" tiledversion="1.11.2" orientation="orthogonal" renderorder="right-down" width="50" height="24" tilewidth="8" tileheight="8" infinite="0" nextlayerid="8" nextobjectid="59">
 <editorsettings>
  <export target="../maps/map4.json" format="json"/>
 </editorsettings>
 <tileset firstgid="1" name="tilemap_packed" tilewidth="8" tileheight="8" tilecount="150" columns="15">
  <image source="../tilemap_packed.png" width="120" height="80"/>
 </tileset>
 <layer id="1" name="ground" width="50" height="24">
  <data encoding="csv">
0,0,0,0,0,0,0,0,0,0,0,0,0,0,0,0,0,0,0,0,0,0,0,0,0,0,0,0,0,0,0,0,0,0,0,0,0,0,0,0,0,0,0,0,0,0,0,0,0,0,
0,0,0,0,0,0,0,0,0,0,0,0,0,0,0,0,0,0,0,0,0,0,0,0,0,0,0,0,0,0,0,0,0,0,0,0,0,0,0,0,0,0,0,0,0,0,0,0,0,0,
0,0,0,0,0,0,0,0,0,0,0,0,0,0,0,0,0,0,0,0,0,0,0,0,0,0,0,0,0,0,0,0,0,0,0,0,0,0,0,0,0,0,0,0,0,0,0,0,0,0,
0,0,0,0,0,0,0,0,0,0,0,0,0,0,0,0,0,0,0,0,0,0,0,0,0,0,0,0,0,0,0,0,0,0,0,0,0,0,0,0,0,0,0,0,0,0,0,0,0,0,
0,0,0,0,0,0,0,0,0,0,0,0,0,0,0,0,0,0,0,0,0,0,0,0,0,0,0,0,0,0,0,0,0,0,0,0,0,0,0,0,0,0,0,0,0,0,0,0,0,0,
0,0,0,0,0,0,0,0,0,0,0,0,0,0,0,0,0,0,0,0,0,0,0,0,0,0,0,0,0,0,0,0,0,0,0,0,0,0,0,0,0,0,0,0,0,0,0,0,0,0,
0,0,0,0,0,0,0,0,0,0,0,0,0,0,0,0,0,0,0,0,0,0,0,0,0,0,0,0,0,0,0,0,0,0,0,0,0,0,0,0,0,0,0,0,0,0,0,0,0,0,
0,0,0,0,0,0,0,0,0,0,0,0,0,0,0,0,0,0,0,0,0,0,0,0,0,0,0,0,0,0,0,0,0,0,0,0,0,0,0,0,0,0,0,0,0,0,0,0,0,0,
0,0,0,0,0,0,0,0,0,0,0,0,0,0,0,0,0,0,0,0,0,0,0,0,0,0,0,0,0,0,0,0,0,0,0,0,0,0,0,0,0,0,0,0,0,0,0,0,0,0,
0,0,0,0,0,0,0,0,0,0,0,0,0,0,0,0,0,0,0,0,0,0,0,0,0,0,0,0,0,0,0,0,0,0,66,0,0,0,0,0,0,0,0,0,0,0,0,0,0,0,
0,0,0,0,0,0,0,0,0,0,0,0,0,0,0,0,0,0,0,0,0,0,0,0,0,0,0,0,0,0,0,0,0,64,65,0,0,0,0,0,0,0,0,0,0,0,0,0,0,0,
0,0,0,0,0,0,0,0,0,0,0,0,0,0,0,0,0,0,0,0,0,0,0,0,0,0,0,0,0,0,0,0,0,21,19,0,0,0,0,0,0,0,0,0,0,0,0,0,0,0,
0,0,0,0,0,0,0,0,0,0,0,0,0,0,0,0,0,0,0,0,0,2,0,0,0,0,0,0,0,0,0,0,0,21,19,0,0,0,0,0,0,0,0,0,0,0,0,0,0,0,
0,0,0,0,0,0,0,0,0,0,0,0,0,0,0,0,0,0,0,0,0,17,0,0,0,0,0,0,0,0,0,0,0,21,19,0,0,0,0,0,0,0,0,0,0,0,0,0,0,0,
0,0,0,0,0,0,0,0,0,0,0,0,0,0,0,0,0,0,0,0,0,32,0,0,0,0,0,0,0,66,0,0,0,21,19,0,0,0,0,64,35,65,0,0,0,0,0,0,0,0,
0,0,0,0,0,0,0,0,0,2,0,0,0,0,0,0,0,0,0,0,0,47,0,0,0,64,35,35,35,35,65,0,0,21,19,0,0,2,0,21,3,19,0,0,0,0,0,0,0,0,
0,66,0,0,0,0,0,0,0,17,0,0,0,0,0,0,0,0,0,0,66,62,0,0,0,21,3,3,40,3,19,0,0,79,80,0,0,17,0,79,5,80,0,0,81,0,0,0,0,0,
35,35,35,65,0,0,0,0,0,32,0,64,35,35,65,0,0,0,0,64,35,35,35,35,35,36,3,3,3,3,19,0,0,0,0,0,0,32,0,0,0,0,0,0,64,35,35,35,35,35,
3,3,3,19,0,0,102,103,0,47,0,21,3,3,19,0,0,0,0,21,3,3,3,3,3,3,3,3,3,3,19,0,0,0,0,0,0,47,0,0,0,0,0,0,21,3,3,3,3,10,
3,3,3,19,0,0,117,118,0,62,0,21,25,3,19,0,0,0,0,21,18,3,3,3,18,3,33,3,3,3,19,0,0,0,0,0,0,62,0,0,0,81,0,0,21,3,3,3,3,3,
3,25,3,34,35,35,35,35,35,35,35,36,3,3,34,35,35,35,35,36,3,18,3,3,3,3,3,18,3,3,34,35,35,35,35,35,35,35,35,35,35,35,35,35,36,3,3,3,3,3,
3,3,3,3,3,3,3,3,3,3,3,3,3,3,3,3,3,3,3,3,3,3,3,3,3,3,3,3,3,3,3,3,3,25,3,3,3,3,3,3,3,3,3,3,3,40,3,3,3,3,
3,3,3,3,3,3,3,3,3,3,3,3,25,3,3,3,3,3,3,3,3,3,3,33,3,3,3,3,3,3,3,3,3,3,3,3,3,3,3,3,3,10,3,3,3,3,3,3,3,3,
3,3,3,3,3,3,3,3,3,3,3,3,3,33,3,3,3,3,3,3,3,3,33,33,3,3,3,3,3,3,3,3,3,3,3,3,3,3,3,3,3,3,3,3,3,3,3,3,3,3
</data>
 </layer>
 <objectgroup id="7" name="world">
  <object id="16" name="player" gid="106" x="51.0292" y="151.789" width="8" height="8"/>
  <object id="17" name="finish" gid="74" x="376" y="136" width="8" height="8"/>
 </objectgroup>
 <objectgroup id="4" name="coins">
  <object id="7" gid="89" x="8" y="120" width="8" height="8"/>
  <object id="8" gid="89" x="16" y="120" width="8" height="8"/>
  <object id="37" gid="89" x="184" y="112" width="8" height="8"/>
  <object id="38" gid="89" x="208" y="96" width="8" height="8"/>
  <object id="40" gid="89" x="232" y="80" width="8" height="8"/>
  <object id="41" gid="89" x="232" y="72" width="8" height="8"/>
  <object id="42" gid="89" x="232" y="64" width="8" height="8"/>
  <object id="44" gid="89" x="312" y="96" width="8" height="8"/>
  <object id="45" gid="89" x="320" y="96" width="8" height="8"/>
  <object id="46" gid="89" x="264" y="64" width="8" height="8"/>
  <object id="47" gid="89" x="272" y="64" width="8" height="8"/>
  <object id="49" gid="89" x="232" y="56" width="8" height="8"/>
  <object id="51" gid="89" x="328" y="96" width="8" height="8"/>
  <object id="52" gid="89" x="216" y="96" width="8" height="8"/>
  <object id="55" gid="89" x="128" y="128" width="8" height="8"/>
  <object id="56" gid="89" x="136" y="128" width="8" height="8"/>
  <object id="57" gid="89" x="152" y="120" width="8" height="8"/>
  <object id="58" gid="89" x="112" y="120" width="8" height="8"/>
 </objectgroup>
 <objectgroup id="5" name="enemies">
  <object id="18" name="ground-enemy" gid="115" x="16" y="136" width="8" height="8"/>
  <object id="19" name="flying-enemy" gid="115" x="104" y="120" width="8" height="8">
   <properties>
    <property name="path" value="[{&quot;x&quot;:7,&quot;y&quot;:0}, {&quot;x&quot;:0,&quot;y&quot;:0}]"/>
   </properties>
  </object>
  <object id="21" name="ground-enemy" gid="115" x="272" y="160" width="8" height="8"/>
  <object id="31" name="ground-enemy" gid="115" x="312" y="160" width="8" height="8"/>
  <object id="54" name="ground-enemy" gid="115" x="184" y="136" width="8" height="8"/>
 </objectgroup>
 <objectgroup id="6" name="jumpers">
  <object id="53" gid="16" x="320" y="112" width="8" height="8"/>
 </objectgroup>
 <objectgroup id="2" name="spikes">
  <object id="2" gid="76" x="173.909" y="-20.4338" width="8" height="8"/>
  <object id="3" gid="76" x="157.909" y="-20.4338" width="8" height="8"/>
  <object id="4" gid="76" x="165.909" y="-20.4338" width="8" height="8"/>
  <object id="22" gid="76" x="320" y="160" width="8" height="8"/>
  <object id="23" gid="76" x="264" y="160" width="8" height="8"/>
  <object id="25" gid="76" x="200" y="120" width="8" height="8"/>
  <object id="26" gid="76" x="224" y="120" width="8" height="8"/>
  <object id="27" gid="76" x="136" y="160" width="8" height="8"/>
  <object id="28" gid="76" x="144" y="160" width="8" height="8"/>
  <object id="29" gid="76" x="120" y="160" width="8" height="8"/>
  <object id="30" gid="76" x="128" y="160" width="8" height="8"/>
 </objectgroup>
</map>
