<?xml version="1.0" encoding="UTF-8"?>
<map version="1.10" tiledversion="1.11.2" orientation="orthogonal" renderorder="right-down" width="50" height="24" tilewidth="8" tileheight="8" infinite="0" nextlayerid="8" nextobjectid="78">
 <editorsettings>
  <export target="../maps/map3.json" format="json"/>
 </editorsettings>
 <tileset firstgid="1" name="tilemap_packed" tilewidth="8" tileheight="8" tilecount="150" columns="15">
  <image source="../tilemap_packed.png" width="120" height="80"/>
 </tileset>
 <layer id="1" name="ground" width="50" height="24">
  <data encoding="csv">
0,0,0,0,0,0,0,0,0,0,0,0,0,0,0,0,0,0,0,0,0,0,0,0,0,0,0,0,0,0,0,0,0,0,0,0,0,0,0,0,0,0,0,0,0,0,0,0,0,0,
0,0,0,0,0,0,0,0,0,0,0,0,0,0,0,0,0,0,0,0,0,0,0,0,0,0,0,0,0,0,0,0,0,0,0,0,0,0,0,0,0,0,0,0,0,0,0,0,0,0,
0,0,0,0,0,0,0,0,0,0,0,0,0,0,0,0,0,0,0,0,0,0,0,0,0,0,0,0,0,0,0,0,0,0,0,0,0,0,0,0,0,0,0,0,0,0,0,0,0,0,
0,0,0,0,0,0,0,0,0,0,0,0,0,0,0,0,0,0,0,0,0,0,0,0,0,0,0,0,0,0,0,0,0,0,0,0,0,0,0,0,0,0,0,0,0,0,0,0,0,0,
0,0,0,0,0,0,0,0,0,0,0,0,0,0,0,0,0,0,0,0,0,0,0,0,0,0,0,0,0,0,0,0,0,0,0,0,0,0,0,0,0,0,0,0,0,0,0,0,0,0,
0,0,0,0,0,0,0,0,0,0,0,0,0,0,0,0,0,0,0,0,0,0,0,0,0,0,0,0,0,0,0,0,0,0,0,0,0,0,0,0,0,0,0,0,0,0,0,0,0,0,
0,0,0,0,0,0,0,0,0,0,0,0,0,0,0,0,0,0,0,0,0,0,0,0,0,0,0,0,0,0,0,0,0,0,0,0,0,0,0,0,0,0,0,0,0,0,0,0,0,0,
0,0,0,0,0,0,0,0,0,0,0,0,0,0,0,0,0,0,0,0,0,0,0,0,0,0,0,0,0,0,0,0,0,0,0,0,0,0,0,0,0,0,0,0,0,0,0,0,0,0,
0,0,0,0,0,0,0,0,0,0,0,0,0,0,0,0,0,0,0,0,0,0,0,0,0,0,0,0,0,0,0,0,0,0,0,0,0,0,0,0,0,0,0,0,0,0,0,0,0,0,
0,0,0,0,0,0,0,0,0,0,0,0,0,0,0,0,0,0,0,0,0,0,0,0,0,0,0,0,0,0,0,0,0,0,0,0,0,0,0,0,0,0,0,0,0,0,0,0,0,0,
0,0,0,0,0,0,0,0,0,0,0,0,0,0,0,0,0,0,0,0,0,0,0,0,0,0,0,0,0,0,0,0,0,0,0,0,0,0,0,0,0,0,0,0,0,0,0,0,0,0,
0,0,0,0,0,0,0,0,0,0,0,0,0,0,0,0,0,0,0,0,0,0,0,0,0,0,0,0,0,0,0,0,0,0,0,2,0,0,0,0,0,0,0,0,0,0,0,0,0,0,
0,0,0,0,0,0,0,0,0,0,0,0,0,0,0,0,0,0,0,0,0,0,0,0,0,0,0,0,0,0,0,0,0,0,0,17,0,0,0,0,0,0,0,0,0,0,0,0,0,0,
0,0,0,0,0,0,0,0,0,0,0,0,0,0,0,0,0,0,0,0,0,0,0,0,0,0,0,0,0,0,0,0,0,0,0,32,0,0,0,0,0,0,0,0,0,64,35,35,35,35,
0,0,0,0,0,0,0,0,0,0,0,0,0,0,0,0,0,0,0,0,0,0,0,0,0,0,0,0,0,0,0,0,0,0,0,47,0,0,0,0,0,0,0,0,0,21,3,3,3,3,
0,0,102,103,0,0,0,0,0,0,0,2,0,0,0,0,0,0,0,2,0,0,0,0,0,0,64,35,35,35,35,65,0,0,0,62,0,0,0,0,0,0,0,0,0,21,3,3,3,3,
0,0,117,118,0,0,0,0,0,0,0,17,0,0,0,0,0,0,0,17,0,0,0,0,0,0,21,3,3,3,3,34,35,35,35,35,35,35,65,0,0,0,2,0,0,21,3,3,3,3,
35,35,35,35,35,35,65,0,0,0,0,32,0,0,0,0,0,0,0,32,0,0,0,81,0,0,21,3,3,3,3,3,3,3,3,3,3,3,19,0,0,0,17,0,0,21,3,3,3,3,
3,18,3,3,3,3,19,0,0,0,0,47,0,0,0,0,0,0,0,47,0,0,64,35,35,35,36,3,3,3,3,3,3,3,3,3,3,3,19,0,0,0,32,0,0,21,3,3,3,3,
3,3,3,3,3,3,19,0,0,81,0,62,0,0,0,0,0,66,0,62,0,0,21,3,3,3,3,3,3,3,3,3,3,3,3,3,40,3,19,0,0,0,47,0,0,21,3,3,3,3,
3,3,3,3,3,18,34,35,35,35,35,35,65,0,0,0,64,35,35,35,35,35,36,3,3,3,3,3,3,3,3,3,3,3,3,3,3,3,19,0,0,0,62,0,0,21,3,3,3,3,
3,3,3,3,3,3,3,3,3,3,3,3,34,35,35,35,36,3,3,3,3,3,3,3,3,3,3,3,18,35,35,35,35,33,3,3,3,3,34,35,35,35,35,35,35,36,3,3,3,3,
3,3,3,3,3,3,3,3,3,3,3,3,25,3,3,3,3,3,3,3,3,3,3,3,3,3,3,3,3,3,3,3,3,3,3,3,3,3,3,3,3,3,3,3,3,3,3,3,3,3,
3,3,3,3,3,3,3,3,3,3,3,3,3,3,3,3,3,3,3,3,3,3,3,3,33,3,3,3,3,3,3,3,3,3,3,3,3,3,3,3,3,3,3,3,3,3,3,3,3,3
</data>
 </layer>
 <objectgroup id="7" name="world">
  <object id="16" name="player" gid="106" x="19.6121" y="128.244" width="8" height="8"/>
  <object id="17" name="finish" gid="74" x="376" y="104" width="8" height="8"/>
  <object id="29" x="167.794" y="126.343" width="0.331609" height="0.331609"/>
 </objectgroup>
 <objectgroup id="4" name="coins">
  <object id="47" gid="89" x="320" y="88" width="8" height="8"/>
  <object id="48" gid="89" x="320" y="112" width="8" height="8"/>
  <object id="49" gid="89" x="320" y="120" width="8" height="8"/>
  <object id="50" gid="89" x="320" y="80" width="8" height="8"/>
  <object id="64" gid="89" x="152" y="112" width="8" height="8"/>
  <object id="65" gid="89" x="176" y="96" width="8" height="8"/>
  <object id="66" gid="89" x="168" y="96" width="8" height="8"/>
  <object id="67" gid="89" x="112" y="144" width="8" height="8"/>
  <object id="69" gid="89" x="120" y="152" width="8" height="8"/>
  <object id="70" gid="89" x="104" y="152" width="8" height="8"/>
  <object id="74" gid="89" x="208" y="96" width="8" height="8"/>
  <object id="75" gid="89" x="224" y="96" width="8" height="8"/>
  <object id="76" gid="89" x="232" y="96" width="8" height="8"/>
  <object id="77" gid="89" x="248" y="96" width="8" height="8"/>
 </objectgroup>
 <objectgroup id="5" name="enemies">
  <object id="25" name="ground-enemy" gid="115" x="232" y="120" width="8" height="8"/>
  <object id="26" name="ground-enemy" gid="115" x="160" y="160" width="8" height="8"/>
  <object id="38" name="ground-enemy" gid="115" x="328" y="168" width="8" height="8"/>
 </objectgroup>
 <objectgroup id="6" name="jumpers">
  <object id="33" gid="16" x="344" y="168" width="8" height="8"/>
 </objectgroup>
 <objectgroup id="2" name="spikes">
  <object id="37" gid="76" x="296" y="128" width="8" height="8"/>
  <object id="51" gid="76" x="120" y="168" width="8" height="8"/>
  <object id="52" gid="76" x="104" y="168" width="8" height="8"/>
  <object id="53" gid="76" x="112" y="168" width="8" height="8"/>
  <object id="55" gid="76" x="192" y="144" width="8" height="8"/>
  <object id="57" gid="76" x="264" y="128" width="8" height="8"/>
 </objectgroup>
</map>
