<?xml version="1.0" encoding="UTF-8"?>
<map version="1.10" tiledversion="1.11.2" orientation="orthogonal" renderorder="right-down" width="60" height="24" tilewidth="8" tileheight="8" infinite="0" nextlayerid="8" nextobjectid="33">
 <editorsettings>
  <export target="../maps/map1.json" format="json"/>
 </editorsettings>
 <tileset firstgid="1" name="tilemap_packed" tilewidth="8" tileheight="8" tilecount="150" columns="15">
  <image source="../tilemap_packed.png" width="120" height="80"/>
 </tileset>
 <layer id="1" name="ground" width="60" height="24">
  <data encoding="csv">
0,0,0,0,0,0,0,0,0,0,0,0,0,0,0,0,0,0,0,0,0,0,0,0,0,0,0,0,0,0,0,0,0,0,0,0,0,0,0,0,0,0,0,0,0,0,0,0,0,0,0,0,0,0,0,0,0,0,0,0,
0,0,0,0,0,0,0,0,0,0,0,0,0,0,0,0,0,0,0,0,0,0,0,0,0,0,0,0,0,0,0,0,0,0,0,0,0,0,0,0,0,0,0,0,0,0,0,0,0,0,0,0,0,0,0,0,0,0,0,0,
0,0,0,0,0,0,0,0,0,0,0,0,0,0,0,0,0,0,0,0,0,0,0,0,0,0,0,0,0,0,0,0,0,0,0,0,0,0,0,0,0,0,0,0,0,0,0,0,0,0,0,0,0,0,0,0,0,0,0,0,
0,0,0,0,0,0,0,0,0,0,0,0,0,0,0,0,0,0,0,0,0,0,0,0,0,0,0,0,0,0,0,0,0,0,0,0,0,0,0,0,0,0,0,0,0,0,0,0,0,0,0,0,0,0,0,0,0,0,0,0,
0,0,0,0,0,0,0,0,0,0,0,0,0,0,0,0,0,0,0,0,0,0,0,0,0,0,0,0,0,0,0,0,0,0,0,0,0,0,0,0,0,0,0,0,0,0,0,0,0,0,0,0,0,0,0,0,0,0,0,0,
0,0,0,0,0,0,0,0,0,0,0,0,0,0,0,0,0,0,0,0,0,0,0,0,0,0,0,0,0,0,0,0,0,0,0,0,0,0,0,0,0,0,0,0,0,0,0,0,0,0,0,0,0,0,0,0,0,0,0,0,
0,0,0,0,0,0,0,0,0,0,0,0,0,0,0,0,0,0,0,0,0,0,0,0,0,0,0,0,0,0,0,0,0,0,0,0,0,0,0,0,0,0,0,0,0,0,0,0,0,0,0,0,0,0,0,0,0,0,0,0,
0,0,0,0,0,0,0,0,0,0,0,0,0,0,0,0,0,0,0,0,0,0,0,0,0,0,0,0,0,0,0,0,0,0,0,0,0,0,0,0,0,0,0,0,0,0,0,0,0,0,0,0,0,0,0,0,0,0,0,0,
0,0,0,0,0,0,0,0,0,0,0,0,0,0,0,0,0,0,0,0,0,0,0,0,0,0,0,0,0,0,0,0,0,0,0,0,0,0,0,0,0,0,0,0,0,0,0,0,0,0,0,0,0,0,0,0,0,0,0,0,
0,0,0,0,0,0,0,0,0,0,0,0,0,0,0,0,0,0,0,0,0,0,0,0,0,0,0,0,0,0,0,0,0,0,0,0,0,0,0,0,0,0,0,0,0,0,0,0,0,0,0,0,0,0,0,0,0,0,0,0,
0,0,0,0,0,0,0,0,0,0,0,0,0,0,0,0,0,0,0,0,0,0,0,0,0,0,0,0,0,0,0,0,0,0,0,0,0,0,0,0,0,0,0,0,0,0,0,0,0,0,0,0,0,0,0,0,0,0,0,0,
0,0,0,0,0,0,0,0,0,0,0,0,0,0,0,0,0,0,0,0,0,0,0,0,0,0,0,0,0,0,0,0,0,0,0,0,0,0,0,0,0,0,0,0,0,0,0,0,0,0,0,0,0,0,0,0,0,0,0,0,
0,0,0,0,0,0,0,0,0,0,0,0,0,0,0,0,0,0,0,0,0,0,0,0,0,0,0,0,0,0,0,0,0,0,0,0,0,0,0,0,0,0,0,0,0,0,0,0,0,0,0,0,0,0,0,0,0,0,0,0,
0,0,0,0,0,0,0,0,0,0,0,0,0,0,0,0,0,0,0,0,0,0,0,0,0,0,0,0,0,0,0,0,0,0,0,0,0,0,0,0,0,0,0,0,0,0,0,0,0,0,0,0,0,0,0,0,0,0,0,0,
0,0,0,0,0,0,0,0,0,0,0,0,0,0,0,0,0,0,0,0,0,0,0,0,0,0,0,0,0,0,0,0,0,0,0,0,0,0,0,0,0,0,0,0,0,0,0,0,0,0,0,0,0,0,0,0,0,0,0,0,
0,0,0,0,0,0,0,0,2,0,0,0,0,0,0,0,0,0,0,0,0,0,0,2,0,0,0,0,0,0,0,0,0,0,0,0,0,0,2,0,0,2,0,0,0,0,0,0,0,0,0,0,0,0,0,0,0,0,0,0,
0,0,0,0,0,0,0,0,17,0,0,0,0,0,0,0,0,0,0,0,0,0,0,17,0,0,0,0,0,0,0,66,66,0,0,0,0,0,17,0,0,17,0,0,0,0,0,0,0,0,0,0,0,0,0,0,0,0,0,0,
0,0,0,0,0,0,0,0,32,0,0,0,0,0,0,81,0,0,0,0,0,0,0,32,0,0,0,0,0,64,35,35,35,35,35,65,0,0,32,0,0,32,0,0,0,0,0,0,0,0,0,0,0,0,0,0,0,0,0,0,
0,0,102,103,0,0,0,0,47,0,0,0,0,64,35,35,35,65,0,0,0,0,0,47,0,0,0,0,0,21,3,3,3,40,3,19,0,0,47,0,0,47,0,0,0,0,0,0,0,0,0,0,0,0,0,0,0,0,0,0,
0,0,117,118,0,0,0,0,62,0,0,66,0,21,3,3,3,19,0,0,0,0,0,62,0,0,0,66,0,21,3,3,3,3,3,19,0,0,62,0,0,62,0,81,0,0,0,0,0,0,66,0,0,0,0,66,0,0,0,0,
35,35,35,35,35,35,35,35,35,35,35,35,35,36,3,3,10,34,35,35,35,35,35,35,35,35,35,35,35,36,25,3,3,3,3,34,35,35,35,35,35,35,35,35,35,35,35,35,35,35,35,35,35,35,35,35,35,35,35,35,
3,3,3,3,3,3,3,3,3,3,3,3,3,3,3,3,3,3,18,3,3,3,3,3,3,3,3,3,3,3,3,3,3,3,3,3,3,18,3,3,3,3,3,3,3,3,3,3,3,3,3,10,3,3,3,3,3,3,3,3,
3,3,3,3,3,3,3,3,3,3,3,3,25,3,3,3,3,18,3,3,3,3,3,3,3,3,3,10,3,3,3,3,3,18,3,3,3,3,3,3,25,3,3,3,3,3,3,3,3,3,3,3,3,3,3,3,3,3,3,3,
3,3,3,3,3,3,3,3,3,3,3,3,3,3,3,3,3,3,3,3,3,3,3,3,3,3,3,3,3,3,3,3,18,3,3,3,3,3,3,3,3,3,3,3,3,3,3,3,3,3,3,3,3,3,3,3,3,3,18,18
</data>
 </layer>
 <objectgroup id="7" name="world">
  <object id="16" name="player" gid="106" x="19.4461" y="152.824" width="8" height="8"/>
  <object id="17" name="finish" gid="74" x="456" y="160" width="8" height="8"/>
 </objectgroup>
 <objectgroup id="4" name="coins">
  <object id="7" gid="89" x="120" y="128" width="8" height="8"/>
  <object id="8" gid="89" x="112" y="128" width="8" height="8"/>
  <object id="18" gid="89" x="256" y="120" width="8" height="8"/>
  <object id="19" gid="89" x="264" y="120" width="8" height="8"/>
  <object id="20" gid="89" x="248" y="120" width="8" height="8"/>
  <object id="22" gid="89" x="200" y="144" width="8" height="8"/>
  <object id="23" gid="89" x="360" y="144" width="8" height="8"/>
  <object id="24" gid="89" x="392" y="144" width="8" height="8"/>
  <object id="25" gid="89" x="352" y="144" width="8" height="8"/>
  <object id="27" gid="89" x="160" y="144" width="8" height="8"/>
  <object id="29" gid="89" x="128" y="128" width="8" height="8"/>
  <object id="31" gid="89" x="168" y="144" width="8" height="8"/>
  <object id="32" gid="89" x="400" y="144" width="8" height="8"/>
 </objectgroup>
 <objectgroup id="5" name="enemies"/>
 <objectgroup id="6" name="jumpers"/>
 <objectgroup id="2" name="spikes">
  <object id="2" gid="76" x="376" y="160" width="8" height="8"/>
  <object id="3" gid="76" x="384" y="160" width="8" height="8"/>
  <object id="4" gid="76" x="368" y="160" width="8" height="8"/>
 </objectgroup>
</map>
