<?xml version="1.0" encoding="UTF-8"?>
<map version="1.10" tiledversion="1.11.2" orientation="orthogonal" renderorder="right-down" width="60" height="24" tilewidth="8" tileheight="8" infinite="0" nextlayerid="8" nextobjectid="74">
 <editorsettings>
  <export target="../maps/map5.json" format="json"/>
 </editorsettings>
 <tileset firstgid="1" name="tilemap_packed" tilewidth="8" tileheight="8" tilecount="150" columns="15">
  <image source="../tilemap_packed.png" width="120" height="80"/>
 </tileset>
 <layer id="1" name="ground" width="60" height="24">
  <data encoding="csv">
0,0,0,0,0,0,0,0,0,0,0,0,0,0,0,0,0,0,0,0,0,0,0,0,0,0,0,0,0,0,0,0,0,0,0,0,0,0,0,0,0,0,0,0,0,0,0,86,13,3,3,3,3,3,3,3,11,87,0,0,
0,0,0,0,0,0,0,0,0,0,0,0,0,0,0,0,0,0,0,0,0,0,0,0,0,0,0,0,0,0,0,0,0,0,0,0,0,0,0,0,0,0,0,0,0,0,0,0,28,3,3,3,3,3,3,11,87,0,0,0,
0,0,0,0,0,0,0,0,0,0,0,0,0,0,0,0,0,0,0,0,0,0,0,0,0,0,0,0,0,0,0,0,0,0,0,0,0,0,0,0,0,0,0,0,0,0,0,0,28,3,3,3,3,3,11,87,0,0,0,0,
0,0,0,0,0,0,0,0,0,0,0,0,0,0,0,0,0,0,0,0,0,0,0,0,0,0,0,0,0,0,0,0,0,0,0,0,0,0,0,0,0,0,0,0,0,0,0,0,28,3,3,3,3,11,87,0,0,0,0,0,
0,0,0,0,0,0,0,0,0,0,0,0,0,0,0,0,0,0,0,0,0,0,0,0,0,0,0,0,0,0,0,0,0,0,0,0,0,0,0,0,0,0,0,0,0,0,0,0,28,3,3,3,3,26,0,0,0,0,0,0,
0,0,0,0,0,0,0,0,0,0,0,0,0,0,0,0,0,0,0,0,0,0,0,0,0,0,0,0,0,0,0,0,0,0,0,0,0,0,0,0,0,0,0,0,0,0,0,0,86,13,3,11,12,87,0,0,0,0,0,0,
0,0,0,0,0,0,0,0,0,0,0,0,0,0,0,0,0,0,0,0,0,0,0,0,0,0,0,0,0,0,0,0,0,0,0,0,0,0,0,0,0,0,0,0,0,0,0,0,0,28,11,87,0,0,0,0,0,0,0,0,
0,0,0,0,0,0,0,0,0,0,0,0,0,0,0,0,0,0,0,0,0,0,0,0,0,0,0,0,0,0,0,0,0,0,0,0,0,0,0,0,0,0,0,0,0,0,0,0,0,28,26,0,0,0,0,0,0,0,0,0,
0,0,0,0,0,0,0,0,0,0,0,0,0,0,0,0,0,0,0,0,0,0,0,0,0,0,0,0,0,0,0,0,0,0,0,0,0,0,0,0,0,0,0,0,0,0,0,0,0,28,26,0,0,0,0,0,0,0,0,0,
0,0,0,0,0,0,0,0,0,0,0,0,0,0,0,0,0,0,0,0,0,0,0,0,0,0,0,0,0,0,0,0,0,0,0,0,0,0,0,0,0,0,0,0,0,0,0,0,0,28,26,0,0,0,0,0,0,0,0,0,
0,0,0,0,0,0,0,0,0,0,0,0,0,0,0,0,0,0,0,0,0,0,0,0,0,0,0,0,0,0,0,0,0,0,0,0,0,0,0,0,0,0,0,0,0,0,0,0,71,43,26,0,0,0,0,0,0,0,0,0,
0,0,0,0,0,0,0,0,0,0,0,0,0,0,0,0,0,0,0,0,0,0,0,0,0,0,0,0,0,0,0,0,0,0,0,0,0,0,0,0,0,0,0,0,0,0,0,0,28,11,87,0,0,0,0,73,0,0,0,0,
0,0,0,0,0,0,0,0,0,0,0,0,0,0,0,0,0,0,0,0,0,0,0,0,0,0,0,0,0,0,0,0,0,0,0,0,0,0,0,0,0,0,0,0,0,0,0,0,28,26,0,0,0,0,71,42,42,42,42,42,
0,0,0,0,0,0,0,0,0,0,0,0,0,0,0,0,0,0,0,0,0,0,0,0,0,0,0,0,0,0,0,0,0,0,0,0,0,0,0,0,0,0,0,0,0,0,0,0,28,26,0,0,0,0,86,12,12,12,12,13,
0,0,0,0,0,0,0,0,0,0,0,0,0,0,0,0,0,0,0,0,0,0,0,0,0,0,0,0,0,0,0,0,0,0,0,0,0,0,0,0,0,0,0,0,0,0,0,0,28,41,72,0,0,0,0,0,0,0,0,28,
0,0,0,0,0,0,0,0,0,0,0,0,0,0,0,0,0,0,0,0,0,0,0,0,0,0,0,0,0,0,0,0,0,0,0,0,0,0,0,0,0,0,0,0,0,0,0,0,28,3,26,0,0,0,0,0,0,0,0,28,
0,0,0,0,0,0,0,0,0,0,0,0,0,0,0,0,0,0,0,0,0,0,0,0,0,0,0,0,0,2,0,0,0,0,0,0,0,0,0,71,42,72,0,0,0,0,0,0,28,3,26,0,0,0,0,0,0,0,0,28,
0,0,0,0,0,0,0,0,0,0,0,0,0,0,0,0,0,0,0,0,0,0,0,0,0,0,0,0,0,17,0,0,0,0,73,0,0,0,0,28,3,26,0,0,0,0,0,0,28,3,41,42,42,72,0,0,0,0,0,28,
0,0,0,0,0,0,0,0,0,0,0,0,0,0,0,0,0,0,0,0,0,0,0,0,0,0,0,0,0,32,0,0,0,71,42,72,0,0,0,28,3,26,0,0,0,0,0,0,86,12,12,12,12,87,0,0,0,0,0,28,
0,67,0,0,0,0,0,0,0,0,0,0,0,0,0,0,0,0,0,0,0,0,0,0,0,102,103,0,0,47,0,0,0,28,3,26,0,0,0,28,3,41,42,42,72,0,0,0,0,0,0,0,0,0,0,0,71,42,42,43,
0,0,0,66,0,0,0,0,0,0,0,0,0,0,0,0,0,0,0,0,0,0,0,0,0,117,118,0,0,62,0,0,0,28,3,26,0,0,0,28,3,3,3,3,26,0,0,73,0,0,0,0,0,0,0,0,28,3,3,3,
35,35,35,35,65,0,0,0,64,35,65,0,0,0,64,35,65,0,0,0,0,64,35,35,35,35,35,35,35,35,35,35,35,43,3,41,42,42,42,43,3,3,3,3,41,42,42,42,42,42,42,42,42,42,42,42,43,3,3,3,
3,3,3,3,19,0,0,0,21,3,19,0,0,0,21,3,19,0,0,0,0,21,3,3,3,3,3,3,3,3,3,3,3,3,3,3,3,3,3,3,3,3,3,3,3,3,3,3,3,3,3,3,3,3,3,3,3,3,3,3,
3,3,3,3,19,0,0,0,21,3,19,0,0,0,21,3,19,0,0,0,0,21,3,3,3,3,3,3,3,3,3,3,3,3,3,3,3,3,3,3,3,3,3,3,3,3,3,3,3,3,3,3,3,3,3,3,3,3,3,3
</data>
 </layer>
 <objectgroup id="7" name="world">
  <object id="21" name="player" gid="106" x="204.24" y="163.941" width="8" height="8"/>
  <object id="43" name="finish" gid="74" x="464" y="96" width="8" height="8"/>
 </objectgroup>
 <objectgroup id="4" name="coins">
  <object id="24" gid="89" x="64" y="144" width="8" height="8"/>
  <object id="25" gid="89" x="72" y="144" width="8" height="8"/>
  <object id="26" gid="89" x="80" y="144" width="8" height="8"/>
  <object id="27" gid="89" x="112" y="144" width="8" height="8"/>
  <object id="28" gid="89" x="120" y="144" width="8" height="8"/>
  <object id="29" gid="89" x="128" y="144" width="8" height="8"/>
  <object id="62" gid="89" x="344" y="136" width="8" height="8"/>
  <object id="63" gid="89" x="352" y="136" width="8" height="8"/>
  <object id="64" gid="89" x="280" y="112" width="8" height="8"/>
  <object id="65" gid="89" x="280" y="104" width="8" height="8"/>
  <object id="66" gid="89" x="280" y="96" width="8" height="8"/>
  <object id="67" gid="89" x="456" y="128" width="8" height="8"/>
  <object id="68" gid="89" x="456" y="136" width="8" height="8"/>
  <object id="69" gid="89" x="424" y="64" width="8" height="8"/>
  <object id="70" gid="89" x="432" y="64" width="8" height="8"/>
  <object id="71" gid="89" x="344" y="112" width="8" height="8"/>
  <object id="72" gid="89" x="344" y="104" width="8" height="8"/>
  <object id="73" gid="89" x="344" y="96" width="8" height="8"/>
 </objectgroup>
 <objectgroup id="5" name="enemies">
  <object id="20" name="flying-enemy" gid="114" x="152" y="152" width="8" height="8">
   <properties>
    <property name="path" value="[{&quot;x&quot;:2, &quot;y&quot;:0}, {&quot;x&quot;:-2, &quot;y&quot;:0}]"/>
   </properties>
  </object>
  <object id="22" name="ground-enemy" gid="115" x="120" y="168" width="8" height="8"/>
  <object id="23" name="ground-enemy" gid="115" x="64" y="168" width="8" height="8"/>
  <object id="37" name="flying-enemy" gid="114" x="296" y="112" width="8" height="8">
   <properties>
    <property name="path" value="[{&quot;x&quot;:0, &quot;y&quot;:2}, {&quot;x&quot;:0, &quot;y&quot;:0}]"/>
   </properties>
  </object>
  <object id="41" name="ground-enemy" gid="115" x="312" y="128" width="8" height="8"/>
  <object id="51" name="ground-enemy" gid="115" x="280" y="144" width="8" height="8"/>
  <object id="54" name="flying-enemy" gid="114" x="376" y="144" width="8" height="8">
   <properties>
    <property name="path" value="[{&quot;x&quot;:0, &quot;y&quot;:3}, {&quot;x&quot;:-2, &quot;y&quot;:3}, {&quot;x&quot;:-2, &quot;y&quot;:0}, {&quot;x&quot;:0, &quot;y&quot;:0}]"/>
   </properties>
  </object>
  <object id="55" name="ground-enemy" gid="115" x="408" y="168" width="8" height="8"/>
  <object id="57" name="flying-enemy" gid="114" x="416" y="88" width="8" height="8">
   <properties>
    <property name="path" value="[{&quot;x&quot;:0, &quot;y&quot;:6}, {&quot;x&quot;:0, &quot;y&quot;:0}]"/>
   </properties>
  </object>
  <object id="60" name="ground-enemy" gid="115" x="416" y="136" width="8" height="8"/>
  <object id="61" name="ground-enemy" gid="115" x="448" y="152" width="8" height="8"/>
 </objectgroup>
 <objectgroup id="6" name="jumpers"/>
 <objectgroup id="2" name="spikes">
  <object id="45" gid="76" x="288" y="168" width="8" height="8"/>
  <object id="46" gid="76" x="296" y="168" width="8" height="8"/>
  <object id="47" gid="76" x="304" y="168" width="8" height="8"/>
  <object id="48" gid="76" x="336" y="152" width="8" height="8"/>
  <object id="49" gid="76" x="344" y="152" width="8" height="8"/>
  <object id="50" gid="76" x="352" y="152" width="8" height="8"/>
 </objectgroup>
</map>
